X:1
T:Title
%%score { ( 1 3 ) | 2 }
L:1/8
M:6/8
K:Bb
V:1 treble nm="Grand Piano"
V:3 treble 
V:2 bass 
V:1
 z3 z2[Q:1/4=90] [DF] | [DB][DB]>[DB] [DB]2 [DF] | G2 B F2 F | [DB][Ec][Fd] [=Ec]2 [EB] | %4
[M:5/8] [Ec]-[Ec]- [Ec]3 |[M:1/8] [EF] |[M:3/4] [Fd][Fd]- [Fd]/[Fd]/ [Fd]2 [DB] | c2 B G2 G | %8
[M:7/8] FBc d3 c |[M:5/8] [DB]-[DB]- [DB]3 |[M:1/8] [DF] |[M:3/4] [DB][DB] z c B>G | %12
 [EG][DF]- [DF]3 [DB] | c6 |[M:5/8] d-d- d3 |[M:1/8] [DB] |[M:3/4] [Fd]>[Fd] [Fd][Fd] [Fc]>[FB] | %17
 cG- G3 G | F2 B B2 A |[M:5/8] [DB]-[DB]- [DB]3 |] %20
V:2
 z3 z2 [B,,B,] | [B,,F,][B,,F,]>[B,,F,] [B,,F,]2 [B,,B,] | [E,B,E]2 [G,B,E] [B,D]2 [B,D] | %3
 [B,,B,][B,,B,][B,,B,] [C,G,]2 [C,B,] |[M:5/8] [F,A,]-[F,A,]- [F,A,]3 |[M:1/8] [F,A,] | %6
[M:3/4] [C,B,][B,,B,]- [B,,B,]/[B,,B,]/ [B,,B,]2 [B,,F,] | [E,G,E]2 [E,G,E] [E,B,E]2 [=E,B,_D] | %8
[M:7/8] [F,B,D][F,B,D][F,A,E] [F,B,F]3 [F,A,E] |[M:5/8] [B,,B,]-[B,,B,]- [B,,B,]3 | %10
[M:1/8] [B,,B,] |[M:3/4] [B,,F,][B,,F,] z [E,G,E] [E,G,E]>[E,B,E] | %12
 [B,,B,][B,,B,]- [B,,B,]3 [B,,B,] | [F,A,F]2 [G,B,] [A,C]2 [B,D] | %14
[M:5/8] [B,,B,]2 [B,,B,] [B,,B,]2 |[M:1/8] [B,,B,] | %16
[M:3/4] [B,,B,]>[B,,B,] [B,,B,][B,,B,] [C,A,]>[D,B,] | [E,G,E][E,B,E]- [E,B,E]3 [=E,B,_D] | %18
 [F,B,D]2 [F,DF] [F,DF]2 [F,CE] |[M:5/8] [B,,B,]-[B,,B,]- [B,,B,]3 |] %20
V:3
 x6 | x6 | x6 | x6 |[M:5/8] x5 |[M:1/8] x |[M:3/4] x6 | x6 |[M:7/8] x7 |[M:5/8] x5 |[M:1/8] x | %11
[M:3/4] x6 | x6 | z2 =E _E2 B |[M:5/8] FGA B2 |[M:1/8] x |[M:3/4] x6 | x6 | x6 |[M:5/8] x5 |] %20

